X:4331
T:Mon père a encore neuf cents moutons - Pil\'e-menu
T:Pilons l'herbe - Pil\'e-menu
O:england
C:Fernhill: ca' nôs
M:2/4
L:1/16
K:C
B2|:B2B2 c2A2|A2G2 A4|B2B2 c2AA|A2G2 A4|B2B2 c2AA|A2G2 A4:|\
|:A2A2 G2G2|A2A2 G4|B2+B2d2+ c2A2|A2G2 A4:|


